X:1
T:I Am the Way
T:I Am the Way
T:James McGranahan
T:James McGranahan, 1887
T:Public Domain Courtesy of the Cyber Hymnal™
T:Public Domain Courtesy of the Cyber Hymnal™
C:James McGranahan
Z:Public Domain
Z:Courtesy of the Cyber Hymnal™
%%score ( 1 2 ) ( 3 4 )
L:1/8
Q:1/4=100
M:6/8
K:Eb
V:1 treble 
V:2 treble 
V:3 bass 
V:4 bass 
V:1
 [EG] | [EG]2 [FA] [GB]2 [Be] | [Bd]2 [Ac] [Ac]2 [EF] | [DF]2 [EG] [FA]2 [Ac] | %4
w: 1.~Like|wan- dering sheep o’er|moun- tains cold, Since|all have gone as-|
w: 2.~Be-|wil- dered oft with|doubt and care, To|God I fain would|
w: 3.~To|Christ the Way, the|Truth, the Life, I|come, no more to|
 ([Ac]3 [GB]2) [FA] | [EG]2 [FA] [GB]2 [Be] | [Bd]2 [Ac] [Ac]2 [Ec] | [Ec]2 [EF] [Fd]2 [Ec] | %8
w: tray; * To|life and peace with-|in the fold, How|may I find the|
w: go; * While|ma- ny cry “Lo|here! Lo there!” The|truth how may I|
w: roam; * He’ll|guide me to my|Fa- ther’s house, To|my e- ter- nal|
 ([Ec]3 B3) ||"^Refrain" [GB]4 [Ac][GB] | [FA]4 ([GB][FA]) | [EG]4 [FA][EG] | [DF]6 | %13
w: way? *|||||
w: know? *|I am the|Way, the *|Truth, and the|Life;|
w: home. *|||||
 [CE]3 [B,F]3 | [EG]2 [EG] [E=A][EA][EA] | [DB]2 [FB] [Fc]2 [EF] | (B3 A3) | G4 GFG | A3- A (GA) | %19
w: ||||||
w: No man|com- eth un- to the|Fa- ther but by|Me. *|I am the Way,|the * Truth, *|
w: ||||||
 B3- B=A[EB] | c3 [Ad]3 | [Ge]2 [Ge] ([Ge][Bd])[Ac] | [GB][GB][GB] [GB]2 [FA] | [EG]3 [DF]3 | E6 |] %25
w: ||||||
w: and * the Life;|No man|* com- eth * un-|to the Fa- ther but|by Me.||
w: ||||||
V:2
 x | x6 | x6 | x6 | x6 | x6 | x6 | x6 | x3 (DFA) || x6 | x6 | x6 | x6 | x6 | x6 | x6 | D6 | %17
 (EEE E2) x2 | (DDD D2) x | (EEE E2) x | AAA x3 | x6 | x6 | x6 | E6 |] %25
V:3
 [E,B,] | [E,B,]2 [E,E] [E,E]2 [G,E] | [A,E]2 [A,E] [A,,E]2 [=A,,C] | %3
w: ~|~ ~ ~ ~|~ ~ ~ ~|
 [B,,B,]2 [B,,B,] [B,,B,]2 [B,,D] | [E,E]3- [E,E]2 [E,B,] | [E,B,]2 [E,E] [E,E]2 [G,E] | %6
w: ~ ~ ~ ~|~ * ~|~ ~ ~ ~|
 [A,E]2 [A,E] [A,E]2 [A,C] | [F,=A,]2 [F,A,] [F,A,]2 [F,A,] | ([B,,B,]3- B,2 D) || %9
w: ~ ~ ~ ~|~ ~ ~ ~|~ * *|
 [E,E][E,E][E,E] [E,E]2 z | [E,B,][E,B,][E,B,] [E,B,]2 z | [E,B,][E,B,][E,B,] [E,B,]2 [E,B,] | %12
w: I am the way,|I am the way,|I am the way, the|
 [B,,B,][B,,B,][B,,B,] (B,2 A,) | [C,G,]3 [D,B,]3 | [E,B,]2 [E,B,] [C,F,][C,F,][C,F,] | %15
w: truth, and the life. *|~ ~|~ ~ ~ ~ ~|
 [B,,F,]2 [D,B,] [F,=A,]2 [F,A,] | [B,,B,]6 | (B,B,B, B,2) E, x | (B,B,B, B,2) x | %19
w: ~ ~ ~ ~|~|I * * * am|the * * *|
 (B,B,B, [G,E])^F,[G,E] | (EEE [F,B,]3) | [E,B,]2 [E,B,] [E,B,]2 [E,E] | %22
w: way, * * * the truth,|and * * *|the life, * *|
 [=E,C][E,C][E,C] [E,C]2 [A,,C] | [B,,B,-]3 (B,2 A,) | [E,G,]6 |] %25
w: |||
V:4
 x | x6 | x6 | x6 | x6 | x6 | x6 | x6 | x3 B,,3 || x6 | x6 | x6 | x3 B,,3 | x6 | x6 | x6 | x6 | %17
 E,3- E,D, x2 | F,3- F, (E,F,) | G,3- x3 | A,3 x3 | x6 | x6 | x3 B,,3 | x6 |] %25

